assets/icons/emote/angel-filled.svg

<?xml version="1.0" encoding="UTF-8" standalone="no"?>
<svg
   viewBox="0 0 24 24"
   width="24"
   height="24"
   version="1.1"
   id="svg8"
   sodipodi:docname="angel-filled.svg"
   inkscape:version="1.2 (1:1.2.1+202207142221+cd75a1ee6d)"
   xmlns:inkscape="http://www.inkscape.org/namespaces/inkscape"
   xmlns:sodipodi="http://sodipodi.sourceforge.net/DTD/sodipodi-0.dtd"
   xmlns="http://www.w3.org/2000/svg"
   xmlns:svg="http://www.w3.org/2000/svg"
   xmlns:rdf="http://www.w3.org/1999/02/22-rdf-syntax-ns#"
   xmlns:cc="http://creativecommons.org/ns#"
   xmlns:dc="http://purl.org/dc/elements/1.1/">
  <metadata
     id="metadata14">
    <rdf:RDF>
      <cc:Work
         rdf:about="">
        <dc:format>image/svg+xml</dc:format>
        <dc:type
           rdf:resource="http://purl.org/dc/dcmitype/StillImage" />
      </cc:Work>
    </rdf:RDF>
  </metadata>
  <defs
     id="defs12" />
  <sodipodi:namedview
     pagecolor="#ffffff"
     bordercolor="#666666"
     borderopacity="1"
     objecttolerance="10"
     gridtolerance="10"
     guidetolerance="10"
     inkscape:pageopacity="0"
     inkscape:pageshadow="2"
     inkscape:window-width="1920"
     inkscape:window-height="1016"
     id="namedview10"
     showgrid="false"
     inkscape:zoom="18.890625"
     inkscape:cx="4.2349049"
     inkscape:cy="1.0851944"
     inkscape:window-x="0"
     inkscape:window-y="0"
     inkscape:window-maximized="1"
     inkscape:current-layer="svg8"
     inkscape:pagecheckerboard="0"
     width="24px"
     inkscape:showpageshadow="2"
     inkscape:deskcolor="#d1d1d1">
    <inkscape:grid
       type="xygrid"
       id="grid1440" />
  </sodipodi:namedview>
  <path
     id="rect1442-7"
     style="fill:#808080;fill-rule:evenodd;stroke-width:1;stroke-linecap:square"
     d="M 11.375 2 C 7.2200042 2 3.875 3.3937517 3.875 5.125 C 3.875 6.8562483 7.2200042 8.25 11.375 8.25 L 12.625 8.25 C 16.779996 8.25 20.125 6.8562483 20.125 5.125 C 20.125 3.3937517 16.779996 2 12.625 2 L 11.375 2 z M 12 3.25 C 15.808746 3.25 18.875 4.086251 18.875 5.125 C 18.875 6.163749 15.808746 7 12 7 C 8.1912538 7 5.125 6.163749 5.125 5.125 C 5.125 4.086251 8.1912538 3.25 12 3.25 z M 4.203125 7.4355469 A 9.3749993 9.3749993 0 0 0 2.625 12.625 A 9.3749993 9.3749993 0 0 0 11.953125 22 A 9.3749993 9.3749993 0 0 0 12 22 A 9.3749993 9.3749993 0 0 0 21.375 12.625 A 9.3749993 9.3749993 0 0 0 19.796875 7.4355469 C 19.370833 7.7589784 18.874508 8.0280377 18.318359 8.2597656 C 16.795333 8.8943607 14.814303 9.25 12.625 9.25 L 11.375 9.25 C 9.1856979 9.25 7.2046686 8.8943607 5.6816406 8.2597656 C 5.1254933 8.0280377 4.6291668 7.7589784 4.203125 7.4355469 z M 8.8359375 9.4804688 C 9.5338479 9.4804688 10.125 10.071621 10.125 10.769531 L 10.125 11.980469 C 10.125 12.678378 9.5338479 13.230469 8.8359375 13.230469 C 8.1380271 13.230469 7.5859375 12.678378 7.5859375 11.980469 L 7.5859375 10.769531 C 7.5859375 10.071621 8.1380271 9.4804687 8.8359375 9.4804688 z M 15.125 9.5 C 15.822908 9.5 16.375 10.091153 16.375 10.789062 L 16.375 12 C 16.375 12.697909 15.822908 13.25 15.125 13.25 C 14.427089 13.25 13.875 12.697909 13.875 12 L 13.875 10.789062 C 13.875 10.091153 14.427089 9.5 15.125 9.5 z M 6.375 14.5 C 8.6179847 16.129306 15.332456 16.129306 17.625 14.5 L 17.589844 15.164062 C 17.581085 15.279301 17.510652 15.556849 17.382812 15.894531 C 14.939144 17.350085 8.7523191 17.325619 6.4882812 15.818359 C 6.4199275 15.588348 6.375 15.38905 6.375 15.28125 L 6.375 14.5 z " />
</svg>

<svg width="24" height="24" xmlns="http://www.w3.org/2000/svg"><path style="fill:gray;stroke-width:1;stroke-linecap:square" d="M11.375 2c-4.155 0-7.5 1.394-7.5 3.125s3.345 3.125 7.5 3.125h1.25c4.155 0 7.5-1.394 7.5-3.125S16.78 2 12.625 2h-1.25zM12 3.25c3.809 0 6.875.836 6.875 1.875C18.875 6.164 15.809 7 12 7s-6.875-.836-6.875-1.875C5.125 4.086 8.191 3.25 12 3.25zM4.203 7.436a9.375 9.375 0 0 0-1.578 5.189A9.375 9.375 0 0 0 11.953 22 9.375 9.375 0 0 0 12 22a9.375 9.375 0 0 0 9.375-9.375 9.375 9.375 0 0 0-1.578-5.19 6.679 6.679 0 0 1-1.479.825c-1.523.634-3.504.99-5.693.99h-1.25c-2.19 0-4.17-.356-5.693-.99a6.679 6.679 0 0 1-1.479-.824zM8.836 9.48c.698 0 1.289.592 1.289 1.29v1.21c0 .698-.591 1.25-1.29 1.25a1.24 1.24 0 0 1-1.25-1.25v-1.21c0-.698.553-1.29 1.25-1.29zm6.289.02c.698 0 1.25.591 1.25 1.29V12a1.24 1.24 0 0 1-1.25 1.25 1.24 1.24 0 0 1-1.25-1.25v-1.21c0-.699.552-1.29 1.25-1.29zm-8.75 5c2.243 1.63 8.957 1.63 11.25 0l-.035.664c-.009.115-.08.393-.207.73-2.444 1.456-8.63 1.432-10.895-.076-.068-.23-.113-.429-.113-.537V14.5z"/></svg>
